wave-arrow-up.svg

<svg fill="currentColor" viewBox="0 0 24 24"><path d="M20 7h2v2h-2c-1.38 0-2.74-.35-4-1-2.5 1.3-5.5 1.3-8 0-1.26.65-2.63 1-4 1H2V7h2c1.39 0 2.78-.47 4-1.33 2.44 1.71 5.56 1.71 8 0C17.22 6.53 18.61 7 20 7m-8 4 4 4h-3v7h-2v-7H8z"/></svg>

<svg  viewBox="0 0 24 24" fill="currentColor"><path  d="M20 7H22V9H20C18.62 9 17.26 8.65 16 8C13.5 9.3 10.5 9.3 8 8C6.74 8.65 5.37 9 4 9H2V7H4C5.39 7 6.78 6.53 8 5.67C10.44 7.38 13.56 7.38 16 5.67C17.22 6.53 18.61 7 20 7M12 11L16 15H13V22H11V15H8L12 11Z"/></svg>
